src/images/bitcore-wordmark-dark.svg

<?xml version="1.0" encoding="UTF-8" standalone="no"?>
<svg width="106px" height="29px" viewBox="0 0 106 29" version="1.1" xmlns="http://www.w3.org/2000/svg" xmlns:xlink="http://www.w3.org/1999/xlink" xmlns:sketch="http://www.bohemiancoding.com/sketch/ns">
    <!-- Generator: Sketch 3.3.3 (12072) - http://www.bohemiancoding.com/sketch -->
    <title>bitcore-wordmark-dark</title>
    <desc>Created with Sketch.</desc>
    <defs></defs>
    <g id="assets" stroke="none" stroke-width="1" fill="none" fill-rule="evenodd" sketch:type="MSPage">
        <g id="bitcore-wordmark-dark" sketch:type="MSArtboardGroup" fill="#4A4A4A">
            <path d="M12.9632012,9.63343373 C13.9686517,9.63343373 14.8376156,9.81024096 15.5706997,10.1638554 C16.3034805,10.5171687 16.910997,10.9957831 17.3926426,11.5987952 C17.8742883,12.2018072 18.2303664,12.9090361 18.4605736,13.7201807 C18.6910841,14.5313253 18.806036,15.4048193 18.806036,16.3406627 C18.806036,17.7756024 18.5391291,19.1325301 18.005012,20.4114458 C17.4711982,21.6906627 16.7432703,22.8033133 15.8218348,23.7496988 C14.9003994,24.6957831 13.8115405,25.4445783 12.554955,25.9957831 C11.2983694,26.5466867 9.93714414,26.8222892 8.47127928,26.8222892 C8.28262462,26.8222892 7.95293393,26.8171687 7.4816006,26.8066265 C7.01057057,26.7963855 6.4712973,26.7496988 5.86378078,26.6662651 C5.25656757,26.5831325 4.61265465,26.4584337 3.93204204,26.2921687 C3.25142943,26.1256024 2.60751652,25.896988 2,25.6057229 L7.43458859,2.92620482 L12.3035165,2.17771084 L10.356006,10.2262048 C10.7748679,10.0388554 11.1937297,9.89337349 11.6125916,9.78945783 C12.0314535,9.68554217 12.4815556,9.63343373 12.9632012,9.63343373 L12.9632012,9.63343373 Z M8.87952553,22.985241 C9.61260961,22.985241 10.3035345,22.8084337 10.9529069,22.4548193 C11.601976,22.101506 12.1621772,21.6283133 12.6335105,21.0355422 C13.1045405,20.4427711 13.4763904,19.771988 13.7487568,19.023494 C14.0208198,18.2746988 14.157003,17.4948795 14.157003,16.6837349 C14.157003,15.6855422 13.9895796,14.9054217 13.6544294,14.3439759 C13.3192793,13.7825301 12.7014505,13.5018072 11.8009429,13.5018072 C11.507952,13.5018072 11.1257898,13.5536145 10.6544565,13.6575301 C10.1831231,13.761747 9.75910511,13.9801205 9.3820991,14.3129518 L7.30902102,22.8605422 C7.43458859,22.8813253 7.54438438,22.9021084 7.63871171,22.9228916 C7.73303904,22.9436747 7.83252252,22.9593373 7.93716216,22.9695783 C8.0418018,22.9801205 8.16767267,22.985241 8.31416817,22.985241 L8.87952553,22.985241 L8.87952553,22.985241 Z M24.711958,26.3855422 L20.0626216,26.3855422 L23.9894895,9.97650602 L28.6697628,9.97650602 L24.711958,26.3855422 L24.711958,26.3855422 Z M26.9736907,7.98012048 C26.3243183,7.98012048 25.738033,7.7876506 25.2145315,7.40301205 C24.69103,7.01807229 24.4292793,6.43072289 24.4292793,5.64036145 C24.4292793,5.20361446 24.5181471,4.79277108 24.6961862,4.40813253 C24.8742252,4.02349398 25.1095886,3.69066265 25.4028829,3.40993976 C25.6961772,3.12921687 26.0364835,2.90542169 26.4238018,2.73915663 C26.8114234,2.57289157 27.2248258,2.48945783 27.6646156,2.48945783 C28.313988,2.48945783 28.9002733,2.68192771 29.4237748,3.06656627 C29.9472763,3.45150602 30.209027,4.03885542 30.209027,4.82921687 C30.209027,5.26596386 30.1201592,5.67680723 29.9421201,6.06144578 C29.7640811,6.44638554 29.5284144,6.77891566 29.2354234,7.05963855 C28.9421291,7.34066265 28.6018228,7.56415663 28.2145045,7.73042169 C27.8268829,7.89698795 27.4134805,7.98012048 26.9736907,7.98012048 L26.9736907,7.98012048 Z M33.4446667,5.89006024 L38.3135946,5.14126506 L37.1200961,9.97650602 L42.3344865,9.97650602 L41.3921231,13.7825301 L36.208973,13.7825301 L34.8268198,19.5225904 C34.7012523,20.0009036 34.6226967,20.4478916 34.5914565,20.8638554 C34.5599129,21.2798193 34.6120811,21.6385542 34.7482643,21.9400602 C34.8844474,22.2418675 35.1201141,22.4756024 35.4552643,22.6421687 C35.7901111,22.8084337 36.2508288,22.8915663 36.8374174,22.8915663 C37.339991,22.8915663 37.8267928,22.8448795 38.2981261,22.7512048 C38.7691562,22.6578313 39.2456456,22.5277108 39.7272913,22.3614458 L40.0727538,25.9177711 C39.4446126,26.1463855 38.764,26.3439759 38.0309159,26.5105422 C37.2981351,26.6768072 36.4288679,26.7599398 35.4237207,26.7599398 C33.9787838,26.7599398 32.8583814,26.5466867 32.0625135,26.1204819 C31.2666456,25.6939759 30.7012883,25.111747 30.3661381,24.373494 C30.0312913,23.635241 29.8844925,22.7876506 29.9263483,21.8310241 C29.9682042,20.8743976 30.115003,19.8656627 30.3661381,18.8051205 L33.4446667,5.89006024 L33.4446667,5.89006024 Z M42.4915976,19.8346386 C42.4915976,18.4201807 42.7221081,17.0891566 43.1828258,15.8412651 C43.6435435,14.5936747 44.3032282,13.5018072 45.1618799,12.5659639 C46.0205315,11.6301205 47.0623784,10.8915663 48.2874204,10.3509036 C49.5124625,9.81024096 50.8791471,9.53975904 52.3868679,9.53975904 C53.3292312,9.53975904 54.1721111,9.62831325 54.9155075,9.80512048 C55.6592072,9.98192771 56.3343604,10.2156627 56.9418769,10.5069277 L55.3398288,14.1256024 C54.920967,13.9593373 54.4863333,13.8084337 54.0362312,13.6731928 C53.5858258,13.538253 53.0362402,13.4704819 52.3868679,13.4704819 C50.8163634,13.4704819 49.5807057,13.9954819 48.6801982,15.0457831 C47.7796907,16.0960843 47.3292853,17.5259036 47.3292853,19.335241 C47.3292853,20.3960843 47.5597958,21.2539157 48.0205135,21.9090361 C48.4812312,22.5641566 49.3292673,22.8915663 50.5649249,22.8915663 C51.1721381,22.8915663 51.7587267,22.8292169 52.3240841,22.7045181 C52.8894414,22.5798193 53.392015,22.4237952 53.8318048,22.2364458 L54.1772673,25.9487952 C53.590982,26.1777108 52.9470691,26.3804217 52.2455285,26.5572289 C51.543988,26.7340361 50.6904925,26.8222892 49.6853453,26.8222892 C48.3869039,26.8222892 47.2874294,26.635241 46.3869219,26.2608434 C45.4864144,25.8864458 44.743018,25.3822289 44.1567327,24.7478916 C43.5701441,24.1135542 43.1461261,23.3698795 42.8843754,22.5171687 C42.6226246,21.664759 42.4915976,20.7704819 42.4915976,19.8346386 L42.4915976,19.8346386 Z M63.3185255,26.8222892 C62.2087387,26.8222892 61.2454474,26.6560241 60.4286517,26.3231928 C59.6118559,25.9903614 58.9363994,25.5225904 58.4025856,24.9192771 C57.8684685,24.3162651 57.4653784,23.6039157 57.193012,22.7825301 C56.9209489,21.9611446 56.7847658,21.0512048 56.7847658,20.0527108 C56.7847658,18.8051205 56.9888889,17.5572289 57.3974384,16.3093373 C57.8056847,15.0614458 58.4077417,13.9385542 59.2036096,12.9400602 C59.9994775,11.9418675 60.9730811,11.1256024 62.125027,10.4912651 C63.2766697,9.85692771 64.596039,9.53975904 66.0831351,9.53975904 C67.171994,9.53975904 68.1301291,9.7063253 68.9572372,10.0388554 C69.7846486,10.3716867 70.4652613,10.839759 70.9990751,11.4427711 C71.5331922,12.0457831 71.9362823,12.7581325 72.2086486,13.5798193 C72.4807117,14.4012048 72.6168949,15.3111446 72.6168949,16.3093373 C72.6168949,17.5572289 72.4179279,18.8051205 72.019994,20.0527108 C71.6223634,21.3006024 71.0357748,22.4237952 70.2608348,23.421988 C69.4861982,24.4201807 68.5174474,25.2364458 67.3551892,25.8707831 C66.1929309,26.5051205 64.8474775,26.8222892 63.3185255,26.8222892 L63.3185255,26.8222892 Z M65.6433453,13.4704819 C64.9521171,13.4704819 64.3449039,13.6680723 63.8214024,14.063253 C63.2975976,14.4584337 62.8581111,14.9575301 62.502033,15.5605422 C62.145955,16.1638554 61.879048,16.8240964 61.701009,17.5415663 C61.52297,18.2590361 61.4337988,18.9400602 61.4337988,19.5849398 C61.4337988,20.6454819 61.6015255,21.461747 61.9363724,22.0337349 C62.2715225,22.6057229 62.8787357,22.8915663 63.7583153,22.8915663 C64.4495435,22.8915663 65.0567568,22.6939759 65.5802583,22.2990964 C66.1040631,21.9039157 66.5438529,21.4048193 66.8996276,20.801506 C67.2557057,20.198494 67.5229159,19.538253 67.7006517,18.8204819 C67.8786907,18.103012 67.9678619,17.421988 67.9678619,16.7774096 C67.9678619,15.7165663 67.8001351,14.9003012 67.4652883,14.3283133 C67.1301381,13.7563253 66.5229249,13.4704819 65.6433453,13.4704819 L65.6433453,13.4704819 Z M86.5015135,13.9695783 C86.0826517,13.8656627 85.6692492,13.7668675 85.2606997,13.6731928 C84.8524535,13.5798193 84.2503964,13.5328313 83.4545285,13.5328313 C83.1612342,13.5328313 82.8366997,13.5590361 82.4806216,13.6108434 C82.1245435,13.6629518 81.8315526,13.7201807 81.601042,13.7825301 L78.5540571,26.3855422 L73.8734805,26.3855422 L77.6429339,10.85 C78.5437447,10.5590361 79.554048,10.2834337 80.6744505,10.023494 C81.7948529,9.76355422 83.0565946,9.63343373 84.4596757,9.63343373 C84.9831772,9.63343373 85.5643063,9.68012048 86.2030631,9.77379518 C86.8418198,9.86746988 87.402021,10.0180723 87.8836667,10.2262048 L86.5015135,13.9695783 L86.5015135,13.9695783 Z M87.5697477,19.9593373 C87.5697477,18.6283133 87.8051111,17.3388554 88.2764444,16.0909639 C88.7477778,14.8430723 89.4126186,13.7358434 90.2712703,12.7686747 C91.1299219,11.801506 92.1717688,11.0216867 93.3968108,10.4289157 C94.6218529,9.83614458 95.9779219,9.53975904 97.4647147,9.53975904 C98.1977988,9.53975904 98.8784114,9.6439759 99.5065526,9.85180723 C100.134997,10.0596386 100.684583,10.3614458 101.155916,10.7563253 C101.626946,11.151506 101.99364,11.635241 102.25539,12.2072289 C102.517141,12.7789157 102.648168,13.4289157 102.648168,14.1569277 C102.648168,15.3213855 102.386114,16.3093373 101.862613,17.1204819 C101.339111,17.9316265 100.611486,18.5918675 99.6794354,19.101506 C98.7473844,19.6108434 97.6427538,19.9801205 96.3652402,20.2087349 C95.08803,20.4376506 93.6952613,20.5521084 92.1872372,20.5521084 C92.334036,21.4256024 92.6534144,22.0442771 93.1453724,22.4081325 C93.6376336,22.771988 94.4177297,22.9542169 95.4856607,22.9542169 C96.155961,22.9542169 96.8365736,22.896988 97.5278018,22.7825301 C98.2187267,22.6680723 98.8680991,22.4963855 99.4753123,22.2677711 L99.8207748,25.9177711 C99.2344895,26.1463855 98.4856336,26.3545181 97.5748138,26.5415663 C96.6636907,26.7289157 95.6743153,26.8222892 94.6060811,26.8222892 C93.3076396,26.8222892 92.2136246,26.6403614 91.3234294,26.276506 C90.4335375,25.9123494 89.7110691,25.4186747 89.156024,24.7945783 C88.600979,24.1707831 88.1978889,23.4427711 87.9467538,22.6108434 C87.6953153,21.7789157 87.5697477,20.8951807 87.5697477,19.9593373 L87.5697477,19.9593373 Z M96.711006,13.2210843 C95.6427718,13.2210843 94.7055646,13.6006024 93.8993844,14.3596386 C93.0932042,15.1186747 92.5642432,16.1222892 92.3131081,17.3698795 C93.6115495,17.3283133 94.6585526,17.2192771 95.4544204,17.0424699 C96.2502883,16.8656627 96.8681171,16.6524096 97.3076036,16.403012 C97.7473934,16.1533133 98.0406877,15.8831325 98.1874865,15.5918675 C98.333982,15.3006024 98.4073814,15.0096386 98.4073814,14.7183735 C98.4073814,13.7201807 97.8417207,13.2210843 96.711006,13.2210843 L96.711006,13.2210843 Z" id="Imported-Layers-Copy-17" sketch:type="MSShapeGroup"></path>
        </g>
    </g>
</svg>

<svg width="106" height="29" viewBox="0 0 106 29" xmlns="http://www.w3.org/2000/svg"><title>bitcore-wordmark-dark</title><path d="M12.963 9.633c1.006 0 1.875.177 2.608.53.734.354 1.34.833 1.824 1.436.48.6.837 1.31 1.068 2.12.23.81.346 1.684.346 2.62 0 1.435-.267 2.792-.8 4.07-.535 1.28-1.263 2.392-2.184 3.34-.922.945-2.01 1.694-3.267 2.245-1.257.55-2.618.826-4.084.826-.187 0-.517-.004-.988-.014-.47-.01-1.01-.057-1.618-.14-.607-.084-1.25-.21-1.932-.375-.68-.165-1.324-.394-1.932-.685l5.435-22.68 4.87-.748-1.95 8.048c.42-.187.84-.333 1.258-.437.418-.104.87-.157 1.35-.157zM8.88 22.985c.733 0 1.424-.177 2.073-.53.65-.353 1.21-.827 1.68-1.42.472-.592.843-1.263 1.116-2.012.27-.748.406-1.528.406-2.34 0-.997-.167-1.778-.503-2.34-.335-.56-.953-.84-1.853-.84-.292 0-.674.05-1.146.155-.47.104-.895.322-1.272.655L7.31 22.86c.125.02.234.042.33.063.093.02.193.036.297.047.105.01.23.015.377.015h.566zm15.832 3.4h-4.65L23.99 9.978h4.68l-3.958 16.41zM26.974 7.98c-.65 0-1.236-.192-1.76-.577-.523-.385-.785-.972-.785-1.763 0-.436.087-.847.265-1.232.178-.385.414-.717.707-.998.293-.28.633-.505 1.02-.67.388-.167.802-.25 1.242-.25.65 0 1.235.192 1.76.577.522.385.784.972.784 1.762 0 .435-.09.846-.268 1.23-.178.385-.414.72-.707 1s-.633.503-1.02.67c-.388.166-.802.25-1.24.25zm6.47-2.09l4.87-.75-1.194 4.837h5.214l-.942 3.806H36.21l-1.383 5.74c-.126.478-.204.925-.236 1.34-.03.417.023.776.16 1.077.135.302.37.536.706.702.335.166.796.25 1.382.25.503 0 .99-.047 1.46-.14.472-.094.95-.224 1.43-.39l.346 3.556c-.628.228-1.31.426-2.042.593-.732.168-1.6.25-2.606.25-1.445 0-2.566-.212-3.36-.64-.797-.425-1.363-1.007-1.698-1.746-.335-.738-.482-1.585-.44-2.542.042-.956.19-1.964.44-3.025l3.08-12.915zm9.048 13.945c0-1.415.23-2.746.69-3.994.462-1.245 1.12-2.337 1.98-3.273.86-.936 1.9-1.674 3.125-2.215 1.225-.54 2.592-.81 4.1-.81.942 0 1.785.088 2.53.265.742.177 1.417.41 2.025.702l-1.602 3.62c-.42-.17-.854-.32-1.304-.455-.45-.135-1-.203-1.65-.203-1.57 0-2.805.525-3.706 1.576-.9 1.05-1.35 2.48-1.35 4.29 0 1.06.23 1.918.69 2.573.46.655 1.31.983 2.545.983.607 0 1.194-.063 1.76-.187.564-.125 1.067-.28 1.507-.47l.345 3.714c-.586.228-1.23.43-1.93.607-.703.177-1.557.265-2.562.265-1.298 0-2.398-.187-3.298-.56-.9-.376-1.644-.88-2.23-1.514-.587-.634-1.01-1.378-1.273-2.23-.26-.853-.392-1.748-.392-2.683zm20.827 6.987c-1.11 0-2.076-.166-2.89-.5-.82-.332-1.495-.8-2.028-1.403-.535-.605-.938-1.317-1.21-2.138-.272-.822-.408-1.732-.408-2.73 0-1.248.204-2.496.612-3.744.41-1.25 1.01-2.37 1.807-3.37.795-.998 1.77-1.814 2.92-2.45 1.153-.633 2.472-.95 3.96-.95 1.088 0 2.046.166 2.873.5.828.332 1.508.8 2.042 1.403.533.604.936 1.316 1.21 2.138.27.82.407 1.73.407 2.73 0 1.247-.2 2.495-.597 3.743-.398 1.25-.984 2.37-1.76 3.37-.774.998-1.743 1.814-2.905 2.45-1.162.634-2.508.95-4.036.95zM65.64 13.47c-.69 0-1.298.198-1.822.593-.522.395-.962.895-1.318 1.498-.356.605-.623 1.265-.8 1.983-.18.717-.268 1.398-.268 2.043 0 1.06.168 1.877.502 2.45.336.57.943.857 1.822.857.692 0 1.3-.198 1.822-.593.524-.396.964-.895 1.32-1.498.356-.604.623-1.264.8-1.982.18-.717.268-1.398.268-2.043 0-1.06-.168-1.877-.503-2.45-.335-.57-.942-.857-1.822-.857zm20.86.5c-.42-.104-.834-.203-1.242-.297-.408-.093-1.01-.14-1.805-.14-.294 0-.618.026-.974.078-.354.054-.647.11-.88.174l-3.045 12.603h-4.68l3.77-15.536c.9-.29 1.91-.566 3.03-.826 1.12-.26 2.383-.39 3.786-.39.524 0 1.105.047 1.744.14.64.094 1.2.245 1.68.453l-1.38 3.744zm1.067 5.99c0-1.332.234-2.62.705-3.87.472-1.247 1.137-2.354 1.995-3.32.86-.968 1.902-1.748 3.127-2.34 1.225-.594 2.58-.89 4.068-.89.733 0 1.413.104 2.042.312.628.208 1.178.51 1.65.904.47.396.837.88 1.098 1.45.262.573.393 1.223.393 1.95 0 1.165-.262 2.153-.785 2.964-.524.812-1.252 1.472-2.184 1.982-.934.51-2.038.878-3.316 1.107-1.277.227-2.67.34-4.178.34.147.875.466 1.493.958 1.857.493.364 1.273.546 2.34.546.67 0 1.352-.057 2.043-.17.69-.116 1.34-.288 1.947-.516l.346 3.65c-.586.228-1.334.437-2.245.624-.91.188-1.9.28-2.97.28-1.297 0-2.39-.18-3.282-.544-.89-.365-1.612-.858-2.167-1.482-.555-.624-.958-1.352-1.21-2.184-.25-.83-.376-1.715-.376-2.65zm9.14-6.74c-1.068 0-2.005.38-2.81 1.14-.808.76-1.337 1.762-1.588 3.01 1.3-.042 2.346-.15 3.14-.328.797-.176 1.415-.39 1.855-.64.44-.25.733-.52.88-.81.146-.29.22-.582.22-.874 0-.998-.566-1.497-1.697-1.497z" fill="#4A4A4A" fill-rule="evenodd"/></svg>
